X:1
T:Title
%%score { ( 1 3 5 ) | ( 2 4 ) }
L:1/8
Q:1/4=100
M:4/4
K:Ab
V:1 treble nm="Grand Piano"
V:3 treble 
V:5 treble 
V:2 bass 
V:4 bass 
V:1
 EFGA B2 c2 | [A,DF]4 [B,DB]4 | [B,DG]3 [B,DG] [A,DF]2 [B,DG]2 | F4 z4 | EFGA B2 c2 | F4 [Fd]4 | %6
w: J.~Lincoln~Hall * * * * *||||||
 d3 B G2 E2 | [CA]6 z2 | e3 d F2 G2 | B4 A4 | e4 z4 | c6[K:bass] z2 | [DFd]3 [DFd] [Ec]2 [Ec]2 | %13
w: |||||||
 [FB]4 F4 | E3 G B2 c2 | [CA]6 z2 |] %16
w: |||
V:2
 E,F,G,A, B,2 C2 | D,4 B,,4 | E,3 E, E,2 E,2 | z4 E4 | E,F,G,A, B,2 C2 | [D,A,D]4 [B,,B,]4 | %6
 [E,G,E]3 [E,G,E] [E,G,D]2 [E,G,D]2 | [A,,A,]6 z2 | [E,B,]2 [E,B,]2 [E,B,D]2 [E,B,D]2 | %9
 [A,,A,]2 [A,,A,]2 [A,,A,]2 [A,,A,]2 | [E,B,]2 [E,B,]2 [E,B,]2 [E,B,]2 | [A,E]6 z2 | %12
 [B,,B,]3 [B,,B,] [F,=A,D]2 [F,A,D]2 | [D,D]4 [D,A,D]4 | [E,A,C]3 [E,A,C] [E,G,D]2 [E,G,E]2 | %15
 [A,,A,]6 z2 |] %16
V:3
 x8 | x8 | x8 | [A,C]8 | x8 | x8 | x8 | x8 | G2 G2 z4 | C2 C2 C2 C2 | G2 z d [GB]2 [Gd]2 | %11
 z2[K:bass] G,2 F,2 E,2 | x8 | x8 | x8 | x8 |] %16
V:4
 x8 | x8 | x8 | A,,8 | x8 | x8 | x8 | x8 | x8 | x8 | x8 | x8 | x8 | x8 | x8 | x8 |] %16
V:5
 x8 | x8 | x8 | x8 | x8 | x8 | x8 | x8 | x8 | x8 | z2 G2 z4 | x2[K:bass] x6 | x8 | x8 | x8 | x8 |] %16

